remix/Map/map-pin-user-line.svg

<svg viewBox="0 0 24 24" fill="currentColor" xmlns="http://www.w3.org/2000/svg"><path d="M17.0839 15.812C19.6827 13.0691 19.6379 8.73845 16.9497 6.05025C14.2161 3.31658 9.78392 3.31658 7.05025 6.05025C4.36205 8.73845 4.31734 13.0691 6.91612 15.812C7.97763 14.1228 9.8577 13 12 13C14.1423 13 16.0224 14.1228 17.0839 15.812ZM8.38535 17.2848L12 20.8995L15.6147 17.2848C14.9725 15.9339 13.5953 15 12 15C10.4047 15 9.0275 15.9339 8.38535 17.2848ZM12 23.7279L5.63604 17.364C2.12132 13.8492 2.12132 8.15076 5.63604 4.63604C9.15076 1.12132 14.8492 1.12132 18.364 4.63604C21.8787 8.15076 21.8787 13.8492 18.364 17.364L12 23.7279ZM12 10C12.5523 10 13 9.55228 13 9C13 8.44772 12.5523 8 12 8C11.4477 8 11 8.44772 11 9C11 9.55228 11.4477 10 12 10ZM12 12C10.3431 12 9 10.6569 9 9C9 7.34315 10.3431 6 12 6C13.6569 6 15 7.34315 15 9C15 10.6569 13.6569 12 12 12Z"/></svg>

<svg viewBox="0 0 24 24" xmlns="http://www.w3.org/2000/svg"><path fill="none" d="M0 0h24v24H0Z"/><path d="M17.084 15.81v0c2.65-2.81 2.53-7.24-.28-9.9 -2.81-2.66-7.24-2.54-9.9.27C4.34 8.87 4.34 13.1 6.9 15.8l-.001 0c1.09-1.76 3.01-2.82 5.08-2.82v0c2.06-.01 3.98 1.06 5.08 2.81Zm-8.699 1.47L12 20.89l3.615-3.62v0c-.95-2-3.34-2.85-5.33-1.91 -.84.39-1.51 1.06-1.91 1.9ZM12 23.72l-6.37-6.37v0c-3.52-3.52-3.52-9.22 0-12.73 3.51-3.52 9.21-3.52 12.72 0 3.51 3.51 3.51 9.21 0 12.72l-6.37 6.36Zm0-13.73v0c.55 0 1-.45 1-1 0-.56-.45-1-1-1v0c-.56 0-1 .44-1 1 0 .55.44 1 1 1Zm0 2v0c-1.66 0-3-1.35-3-3 0-1.66 1.34-3 3-3v0c1.65 0 3 1.34 3 3 0 1.65-1.35 3-3 3Z"/></svg>
